!!!OTL: Fengshou huakai xiang wanli
!!!ARE: Asia, China, Shanxi Qinyuan
!! I, 286
!!!SCT: C2092
!!!YEM: Copyright 1995, estate of Helmut Schaffrath.
**kern
*ICvox
*Ivox
!! Mixed meters:  2/4; 1/4
*M2/4
*k[]
*C:
{8cc
16b
16a
4g
=1
16a
16b
16a
16g
4e
=2
16ee
16gg
16ee
16dd
16ee
16gg
16ee
16dd
=3
16cc
16dd
16b
16a
4g}
=4
{8cc
16g
16a
8cc
8cc
=5
8a
16ee
16b
8a
8g
=6
16a
16b
16a
16g
16a
16g
16e
16d
=7
4c
4c}
=8
{4cc
8ee
8b
=9
8a
16b
16a
8g
8e
=10
16a
16b
16a
16g
4a
=11
8.cc
16e
4d}
=12
{2cc
=13
8r
8ee
8dd
8ee
=14
8.cc
16dd
8cc
8b
=15
16a
16b
16a
16g
4a
=16
8cc
4e
8d
=17
2c}
=18
{16ee
16gg
16ee
16dd
4cc
=19
16ee
16gg
16ee
16dd
4cc
=20
16ee
16r
16dd
16r
16ee
16r
16dd
16r
=21
8gg
16b
16a
8g
8e}
=22
{8r
4cc
16b
16a
=23
*M1/4
4g
=24
*M2/4
16a
16b
16a
16g
4a
=25
8cc
4e
8d
=26
2c}
==
!!!AGN: Wuge Yangge Shieryuehuadiao
!!!ONB: ESAC (Essen Associative Code) Database: SENGANSU
!!!AMT: irregular
!!!AIN: vox
!!!EED: Helmut Schaffrath
!!!EEV: 1.0
*-
